icons/icons-mode/variant-list.svg

<svg width="20" height="20" viewBox="0 0 20 20" fill="none" xmlns="http://www.w3.org/2000/svg"><path d="M4 3H2v2h2V3ZM18 3H6v2h12V3ZM4 7H2v2h2V7ZM18 7H6v2h12V7ZM4 11H2v2h2v-2ZM18 11H6v2h12v-2ZM4 15H2v2h2v-2ZM18 15H6v2h12v-2Z" fill="#000"/></svg>

<svg width="20" height="20" viewBox="0 0 20 20" fill="none" xmlns="http://www.w3.org/2000/svg">
<path d="M4 3H2V5H4V3Z" fill="black"/>
<path d="M18 3H6V5H18V3Z" fill="black"/>
<path d="M4 7H2V9H4V7Z" fill="black"/>
<path d="M18 7H6V9H18V7Z" fill="black"/>
<path d="M4 11H2V13H4V11Z" fill="black"/>
<path d="M18 11H6V13H18V11Z" fill="black"/>
<path d="M4 15H2V17H4V15Z" fill="black"/>
<path d="M18 15H6V17H18V15Z" fill="black"/>
</svg>
